packages/ui-icons/svg/Line/a11y.svg

<svg viewBox="0 0 1920 1920" version="1.1" xmlns="http://www.w3.org/2000/svg">
    <path d="M960,2 C1489.35529,2 1920,432.644706 1920,962 C1920,1491.35529 1489.35529,1922 960,1922 C430.644706,1922 0,1491.35529 0,962 C0,432.644706 430.644706,2 960,2 Z M960,114.941176 C492.875294,114.941176 112.941176,494.875294 112.941176,962 C112.941176,1429.12471 492.875294,1809.05882 960,1809.05882 C1427.12471,1809.05882 1807.05882,1429.12471 1807.05882,962 C1807.05882,494.875294 1427.12471,114.941176 960,114.941176 Z M1396.704,635.232 L1121.504,635.232 L757.450667,635.232 L482.144,635.232 C451.104,635.232 426.677333,659.658667 426.677333,690.698667 C426.677333,721.845333 451.104,746.272 482.144,746.272 L757.450667,746.272 L757.450667,1125.792 L757.450667,1259.01867 L757.450667,1634.05867 C757.450667,1665.20533 781.770667,1689.632 812.917333,1689.632 C843.957333,1689.632 868.384,1665.20533 868.384,1634.05867 L868.384,1259.01867 L1014.83733,1259.01867 L1014.83733,1634.05867 C1014.83733,1665.20533 1039.264,1689.632 1070.304,1689.632 C1101.45067,1689.632 1125.87733,1665.20533 1125.87733,1634.05867 L1125.87733,1259.01867 L1125.87733,1125.792 L1125.87733,744.032 L1401.184,744.032 C1432.224,744.032 1456.65067,719.605333 1456.65067,688.565333 C1449.93067,659.658667 1425.61067,635.232 1396.704,635.232 M939.413333,320.021333 C1013.01333,320.021333 1072.64,379.648 1072.64,453.248 C1072.64,526.741333 1013.01333,586.368 939.413333,586.368 C865.92,586.368 806.186667,526.741333 806.186667,453.248 C806.186667,379.648 865.92,320.021333 939.413333,320.021333" stroke="none" stroke-width="1" fill-rule="evenodd"/>
</svg>

<svg viewBox="0 0 1920 1920" version="1.1" xmlns="http://www.w3.org/2000/svg">
    <path d="M960 1922C430.645 1922 0 1491.355 0 962S430.645 2 960 2s960 430.645 960 960-430.645 960-960 960zM112.941 962c0 467.125 379.934 847.059 847.059 847.059 467.125 0 847.059-379.934 847.059-847.059 0-467.125-379.934-847.059-847.059-847.059-467.125 0-847.059 379.934-847.059 847.059zm1283.763-326.768h-914.56c-31.04 0-55.467 24.427-55.467 55.467 0 31.146 24.427 55.573 55.467 55.573h275.307v887.787c0 31.146 24.32 55.573 55.466 55.573 31.04 0 55.467-24.427 55.467-55.573v-375.04h146.453v375.04c0 31.146 24.427 55.573 55.467 55.573 31.147 0 55.573-24.427 55.573-55.573V744.032h275.307c31.04 0 55.467-24.427 55.467-55.467-6.72-28.906-31.04-53.333-59.947-53.333m-457.29-315.21c73.6 0 133.226 59.626 133.226 133.226 0 73.493-59.627 133.12-133.227 133.12-73.493 0-133.226-59.627-133.226-133.12 0-73.6 59.733-133.227 133.226-133.227" stroke="none" stroke-width="1" fill-rule="evenodd"/>
</svg>
